X: 3732
T: Bird Feeder, The
R: reel
M: 4/4
K: Amixolydian
|:aeea edcA|BcdB BcdB|aeea edcA|EABd cAA2|aeea edcA|BcdB e2z2|e^def gEGA|~B3d cAA2:|
|:(3Bcd ec d~e2d|cdea ~e3d|(3Bcd ec d~e2d|cEGA BAA2|(3Bcd ec d~e2d|cdea e2z2|aeea edcA|EABd cAA2:|

